src/pos-icons/function-variant.svg

<svg height="24" viewBox="0 0 24 24" width="24" xmlns="http://www.w3.org/2000/svg"><path d="m12.42 5.29c-1.1-.1-2.07.71-2.17 1.82l-.25 2.89h2.82v2h-3l-.44 5.07c-.2 2.2-2.14 3.83-4.34 3.63-1.25-.11-2.38-.8-3.04-1.87l1.5-1.5c.33 1.05 1.46 1.64 2.5 1.3.78-.24 1.33-.93 1.4-1.74l.42-4.89h-3v-2h3.18l.27-3.07c.19-2.2 2.12-3.83 4.33-3.65 1.26.11 2.4.81 3.06 1.89l-1.5 1.5c-.25-.77-.93-1.31-1.74-1.38m9.58 8.36-1.41-1.41-2.83 2.83-2.83-2.83-1.43 1.41 2.85 2.85-2.85 2.81 1.43 1.41 2.83-2.83 2.83 2.83 1.41-1.41-2.83-2.81z"/></svg>

<?xml version="1.0" encoding="UTF-8"?><!DOCTYPE svg PUBLIC "-//W3C//DTD SVG 1.1//EN" "http://www.w3.org/Graphics/SVG/1.1/DTD/svg11.dtd"><svg xmlns="http://www.w3.org/2000/svg" xmlns:xlink="http://www.w3.org/1999/xlink" version="1.1" id="mdi-function-variant" width="24" height="24" viewBox="0 0 24 24"><path d="M12.42,5.29C11.32,5.19 10.35,6 10.25,7.11L10,10H12.82V12H9.82L9.38,17.07C9.18,19.27 7.24,20.9 5.04,20.7C3.79,20.59 2.66,19.9 2,18.83L3.5,17.33C3.83,18.38 4.96,18.97 6,18.63C6.78,18.39 7.33,17.7 7.4,16.89L7.82,12H4.82V10H8L8.27,6.93C8.46,4.73 10.39,3.1 12.6,3.28C13.86,3.39 15,4.09 15.66,5.17L14.16,6.67C13.91,5.9 13.23,5.36 12.42,5.29M22,13.65L20.59,12.24L17.76,15.07L14.93,12.24L13.5,13.65L16.35,16.5L13.5,19.31L14.93,20.72L17.76,17.89L20.59,20.72L22,19.31L19.17,16.5L22,13.65Z" /></svg>
